X: 074
T: Auchincruive, a Reel
C: attr. John French (1753-1803)
R: reel
B: "John French Collection", John French ed. p.9 #4
S: http://www.heallan.com/french.asp
Z: 2012 John Chambers <jc:trillian.mit.edu>
N: The two low G's that end the first part should probably be tied, to match the other endings.
M: C
L: 1/8
K: G
C | (B,D)G2 | B,DGc | BAGB AA,-A,C | B,DG2 (B,D)Gc | BdAB GG,G, :|
c | BGdG eGdG | BGdB cA-Ac | BGdG ecAF | GDEC B,G,-G, ||
c | BGdG eGdG | BGdB cA-Ac | Bdec dgfa | gdec BG-G |]

%%sep 2 1 500
%%sep 1 1 500

